raw/symbols/aapl.svg

<svg width="36" height="36" viewBox="0 0 36 36" fill="none" xmlns="http://www.w3.org/2000/svg">
<rect width="36" height="36" rx="18" fill="#C3ED8E"/>
<path d="M26.0121 13.8585C25.8816 13.9598 23.5774 15.2582 23.5774 18.1452C23.5774 21.4845 26.5094 22.6659 26.5972 22.6951C26.5837 22.7672 26.1314 24.3131 25.0513 25.8882C24.0882 27.2744 23.0823 28.6582 21.5522 28.6582C20.022 28.6582 19.6282 27.7694 17.8618 27.7694C16.1404 27.7694 15.5283 28.6875 14.1287 28.6875C12.729 28.6875 11.7524 27.4049 10.6296 25.8297C9.32893 23.98 8.27808 21.1065 8.27808 18.3792C8.27808 14.0048 11.1224 11.6848 13.9216 11.6848C15.409 11.6848 16.6489 12.6614 17.5828 12.6614C18.4716 12.6614 19.8577 11.6263 21.5499 11.6263C22.1912 11.6263 24.4954 11.6848 26.0121 13.8585ZM20.7466 9.77436C21.4464 8.94403 21.9414 7.79191 21.9414 6.6398C21.9414 6.48003 21.9279 6.31801 21.8987 6.1875C20.7601 6.23025 19.4054 6.94583 18.5886 7.89317C17.9473 8.62224 17.3487 9.77436 17.3487 10.9422C17.3487 11.1177 17.378 11.2933 17.3915 11.3495C17.4635 11.363 17.5805 11.3788 17.6975 11.3788C18.7191 11.3788 20.004 10.6947 20.7466 9.77436Z" fill="#030303"/>
</svg>

<svg xmlns="http://www.w3.org/2000/svg" width="36" height="36" fill="none"><rect width="36" height="36" fill="#C3ED8E" rx="18"/><path fill="#030303" d="M26.012 13.858c-.13.102-2.435 1.4-2.435 4.287 0 3.34 2.932 4.52 3.02 4.55-.013.072-.466 1.618-1.546 3.193-.963 1.386-1.969 2.77-3.499 2.77s-1.924-.889-3.69-.889c-1.722 0-2.334.919-3.733.919-1.4 0-2.377-1.283-3.5-2.858-1.3-1.85-2.35-4.723-2.35-7.45 0-4.375 2.843-6.695 5.643-6.695 1.487 0 2.727.976 3.66.976.89 0 2.276-1.035 3.968-1.035.641 0 2.945.059 4.462 2.232Zm-5.265-4.084c.7-.83 1.194-1.982 1.194-3.134 0-.16-.013-.322-.042-.452-1.139.042-2.494.758-3.31 1.705-.642.73-1.24 1.881-1.24 3.05 0 .175.029.35.043.407.072.013.189.029.306.029 1.021 0 2.306-.684 3.049-1.605Z"/></svg>
